plasma/desktoptheme/Materia/icons/juk.svg

<svg xmlns="http://www.w3.org/2000/svg" width="32" height="32" version="1">
 <g id="22-22-juk" transform="translate(27,5)">
  <rect style="opacity:0.001" width="22" height="22" x="5" y="5"/>
  <path style="fill:#dfdfdf" d="m 14.191406,8 c -0.0089,-9.76e-5 -0.01649,0.0011 -0.02539,0.00195 -0.1641,0.013032 -0.275283,0.171679 -0.230469,0.3300781 0.917986,3.2447639 2.69527,9.4768659 2.806641,9.8671879 A 3.5,3 0 0 0 15.5,18 3.5,3 0 0 0 12,21 3.5,3 0 0 0 15.5,24 3.5,3 0 0 0 19,21 3.5,3 0 0 0 18.96875,20.619141 c -0.0011,-0.02355 0.01005,-0.04325 0.002,-0.06836 0,0 -1.245195,-4.880804 -2.167969,-7.972656 0.65389,0.274369 1.106603,0.424401 1.751954,0.712891 0.82956,0.370839 1.479019,0.834923 2,2.558593 0.08717,0.281979 0.50139,0.22472 0.509765,-0.07031 6.87e-4,-0.03324 -0.01205,-0.04732 -0.01172,-0.08008 0,0 0,-0.002 0,-0.002 0.01794,-1.877543 -0.37648,-2.818425 -1.1875,-3.527344 -0.825536,-0.72156 -1.893319,-1.050683 -2.941406,-1.564453 C 15.951335,10.128756 15.149694,9.1009524 14.394531,8.1035156 14.346711,8.0399476 14.270926,8.002148 14.191406,8 Z"/>
 </g>
 <g id="juk">
  <rect style="opacity:0.001" width="32" height="32" x="0" y="0"/>
  <circle style="opacity:0.2" cx="16" cy="16.5" r="14"/>
  <circle style="fill:#666f7f" cx="16" cy="15.5" r="14"/>
  <path style="opacity:0.2" d="m 13.365234,6.5 c -0.01118,-1.217e-4 -0.02207,9.258e-4 -0.0332,0.00195 -0.205125,0.016294 -0.343127,0.2160636 -0.287109,0.4140625 1.183164,4.1820735 4.167969,12.7167965 4.167969,12.7167965 0.01346,0.04087 0.03438,0.07876 0.0625,0.111329 l 0.04102,0.05469 A 4.5,3.5 0 0 0 15.5,19.5 4.5,3.5 0 0 0 11,23 4.5,3.5 0 0 0 15.5,26.5 4.5,3.5 0 0 0 20,23 4.5,3.5 0 0 0 19.886719,22.240234 c -0.0028,-0.01809 0.008,-0.03204 0.002,-0.05078 0,0 -2.108252,-6.101982 -3.261719,-9.966797 0.817363,0.342961 1.384717,0.531965 2.191406,0.892578 1.036952,0.463549 1.848775,1.042678 2.5,3.197266 0.108959,0.352474 0.62625,0.280896 0.636719,-0.08789 8.59e-4,-0.04155 -0.01408,-0.05866 -0.01367,-0.09961 -3.58e-4,-0.0011 3.7e-4,-0.0027 0,-0.0039 0.02243,-2.346929 -0.470601,-3.522054 -1.484375,-4.408203 C 19.42511,10.810941 18.091359,10.398073 16.78125,9.755859 15.565634,9.1599678 14.561141,7.8776555 13.617188,6.6308594 13.557408,6.5513964 13.464634,6.5026848 13.365234,6.5 Z"/>
  <path style="fill:#48cc41" d="m 13.365844,5.5000191 c -0.01118,-1.217e-4 -0.02237,3.327e-4 -0.0335,0.00136 -0.205125,0.016294 -0.344135,0.2160846 -0.288117,0.4140835 1.183164,4.1820734 4.168646,12.7173284 4.168646,12.7173284 0.01346,0.04087 0.03486,0.07866 0.06298,0.111226 l 2.056081,2.759453 c 0.233378,0.266818 0.664911,0.02244 0.556131,-0.31494 0,0 -2.10689,-6.101569 -3.260357,-9.966384 0.817363,0.342961 1.384152,0.531877 2.190841,0.89249 1.036952,0.463549 1.848111,1.042907 2.499336,3.197495 0.108959,0.352474 0.627409,0.281677 0.637878,-0.08711 8.59e-4,-0.04155 -0.01515,-0.05956 -0.01474,-0.10051 h 0.0013 c -3.58e-4,-0.0011 -9.3e-4,-0.0015 -0.0013,-0.0027 0.02243,-2.346929 -0.469783,-3.522776 -1.483557,-4.408925 C 19.425545,9.810936 18.090401,9.3986455 16.780292,8.7564323 15.564676,8.1605407 14.561728,6.8768303 13.617774,5.6300342 13.557994,5.5505712 13.465244,5.5027039 13.365844,5.5000191 Z"/>
  <ellipse style="fill:#48cc41" cx="15.5" cy="22" rx="4.5" ry="3.5"/>
  <path style="opacity:0.2;fill:#ffffff" d="m 13.365234,5.5 c -0.01118,-1.217e-4 -0.02207,9.258e-4 -0.0332,0.00195 -0.205125,0.016294 -0.343127,0.2160636 -0.287109,0.4140625 0.04866,0.1720023 0.135029,0.4313564 0.189453,0.6171875 0.03133,-0.013297 0.06144,-0.028373 0.09766,-0.03125 0.01113,-0.00102 0.02202,-0.00207 0.0332,-0.00195 0.0994,0.00268 0.192174,0.051396 0.251954,0.1308594 0.943953,1.2467961 1.948446,2.5291088 3.164062,3.1249996 1.310109,0.642214 2.643811,1.055075 3.675781,1.957032 0.887053,0.77538 1.375547,1.77273 1.46875,3.582031 0.007,-0.02584 0.02845,-0.04052 0.0293,-0.07031 8.59e-4,-0.04155 -0.01408,-0.05866 -0.01367,-0.09961 -3.58e-4,-0.0011 3.7e-4,-0.0027 0,-0.0039 0.02243,-2.346929 -0.470601,-3.522054 -1.484375,-4.408203 C 19.42511,9.810941 18.091359,9.3980726 16.78125,8.7558594 15.565634,8.1599678 14.561141,6.8776555 13.617188,5.6308594 13.557408,5.5513964 13.464634,5.5026848 13.365234,5.5 Z m 3.261719,6.722656 c 1.153467,3.864815 3.261719,9.966797 3.261719,9.966797 0.006,0.01874 -0.0048,0.03269 -0.002,0.05078 a 4.5,3.5 0 0 1 0.06055,0.273438 A 4.5,3.5 0 0 0 20,22 4.5,3.5 0 0 0 19.886719,21.240234 c -0.0028,-0.01809 0.008,-0.03204 0.002,-0.05078 0,0 -1.72082,-4.998203 -2.904297,-8.820312 -0.122235,-0.0492 -0.223991,-0.0905 -0.357422,-0.146485 z M 15.5,18.5 A 4.5,3.5 0 0 0 11,22 4.5,3.5 0 0 0 11.052734,22.498047 4.5,3.5 0 0 1 15.5,19.5 a 4.5,3.5 0 0 1 1.816406,0.298828 l -0.04102,-0.05469 c -0.02812,-0.03257 -0.04904,-0.07046 -0.0625,-0.111329 0,0 -0.274835,-0.802166 -0.330079,-0.960937 A 4.5,3.5 0 0 0 15.5,18.5 Z"/>
  <path style="opacity:0.1;fill:#ffffff" d="M 16,1.5 A 14,14 0 0 0 2,15.5 14,14 0 0 0 2.0214844,16.085938 14,14 0 0 1 16,2.5 14,14 0 0 1 29.978516,15.914062 14,14 0 0 0 30,15.5 14,14 0 0 0 16,1.5 Z"/>
 </g>
</svg>

<?xml version="1.0" encoding="UTF-8"?>
<svg width="32" height="32" version="1" xmlns="http://www.w3.org/2000/svg">
 <g id="22-22-juk" transform="translate(27,5)">
  <rect x="5" y="5" width="22" height="22" opacity=".001"/>
  <path d="m14.191 8c-0.0089-9.76e-5 -0.01649 0.0011-0.02539 0.00195-0.1641 0.013032-0.27528 0.17168-0.23047 0.33008 0.91799 3.2448 2.6953 9.4769 2.8066 9.8672a3.5 3 0 0 0-1.2422-0.19922 3.5 3 0 0 0-3.5 3 3.5 3 0 0 0 3.5 3 3.5 3 0 0 0 3.5-3 3.5 3 0 0 0-0.03125-0.38086c-0.0011-0.02355 0.01005-0.04325 2e-3 -0.06836 0 0-1.2452-4.8808-2.168-7.9727 0.65389 0.27437 1.1066 0.4244 1.752 0.71289 0.82956 0.37084 1.479 0.83492 2 2.5586 0.08717 0.28198 0.50139 0.22472 0.50976-0.07031 6.87e-4 -0.03324-0.01205-0.04732-0.01172-0.08008v-2e-3c0.01794-1.8775-0.37648-2.8184-1.1875-3.5273-0.82554-0.72156-1.8933-1.0507-2.9414-1.5645-0.97254-0.47667-1.7742-1.5045-2.5293-2.5019-0.04782-0.063568-0.1236-0.10137-0.20312-0.10352z" fill="#dfdfdf"/>
 </g>
 <g id="juk">
  <rect width="32" height="32" opacity=".001"/>
  <circle cx="16" cy="16.5" r="14" opacity=".2"/>
  <circle cx="16" cy="15.5" r="14" fill="#666f7f"/>
  <path d="m13.365 6.5c-0.01118-1.217e-4 -0.02207 9.258e-4 -0.0332 0.00195-0.20512 0.016294-0.34313 0.21606-0.28711 0.41406 1.1832 4.1821 4.168 12.717 4.168 12.717 0.01346 0.04087 0.03438 0.07876 0.0625 0.11133l0.04102 0.05469a4.5 3.5 0 0 0-1.8164-0.29883 4.5 3.5 0 0 0-4.5 3.5 4.5 3.5 0 0 0 4.5 3.5 4.5 3.5 0 0 0 4.5-3.5 4.5 3.5 0 0 0-0.11328-0.75977c-0.0028-0.01809 8e-3 -0.03204 2e-3 -0.05078 0 0-2.1083-6.102-3.2617-9.9668 0.81736 0.34296 1.3847 0.53196 2.1914 0.89258 1.037 0.46355 1.8488 1.0427 2.5 3.1973 0.10896 0.35247 0.62625 0.2809 0.63672-0.08789 8.59e-4 -0.04155-0.01408-0.05866-0.01367-0.09961-3.58e-4 -0.0011 3.7e-4 -0.0027 0-0.0039 0.02243-2.3469-0.4706-3.5221-1.4844-4.4082-1.032-0.90196-2.3657-1.3148-3.6758-1.957-1.2156-0.59589-2.2201-1.8782-3.1641-3.125-0.05978-0.079463-0.15255-0.12817-0.25195-0.13086z" opacity=".2"/>
  <path d="m13.366 5.5c-0.01118-1.217e-4 -0.02237 3.327e-4 -0.0335 0.00136-0.20512 0.016294-0.34414 0.21608-0.28812 0.41408 1.1832 4.1821 4.1686 12.717 4.1686 12.717 0.01346 0.04087 0.03486 0.07866 0.06298 0.11123l2.0561 2.7595c0.23338 0.26682 0.66491 0.02244 0.55613-0.31494 0 0-2.1069-6.1016-3.2604-9.9664 0.81736 0.34296 1.3842 0.53188 2.1908 0.89249 1.037 0.46355 1.8481 1.0429 2.4993 3.1975 0.10896 0.35247 0.62741 0.28168 0.63788-0.08711 8.59e-4 -0.04155-0.01515-0.05956-0.01474-0.10051h0.0013c-3.58e-4 -0.0011-9.3e-4 -0.0015-0.0013-0.0027 0.02243-2.3469-0.46978-3.5228-1.4836-4.4089-1.0319-0.90195-2.3671-1.3142-3.6772-1.9565-1.2156-0.59589-2.2186-1.8796-3.1625-3.1264-0.05978-0.079463-0.15253-0.12733-0.25193-0.13002z" fill="#48cc41"/>
  <ellipse cx="15.5" cy="22" rx="4.5" ry="3.5" fill="#48cc41"/>
  <path d="m13.365 5.5c-0.01118-1.217e-4 -0.02207 9.258e-4 -0.0332 0.00195-0.20512 0.016294-0.34313 0.21606-0.28711 0.41406 0.04866 0.172 0.13503 0.43136 0.18945 0.61719 0.03133-0.013297 0.06144-0.028373 0.09766-0.03125 0.01113-0.00102 0.02202-0.00207 0.0332-0.00195 0.0994 0.00268 0.19217 0.051396 0.25195 0.13086 0.94395 1.2468 1.9484 2.5291 3.1641 3.125 1.3101 0.64221 2.6438 1.0551 3.6758 1.957 0.88705 0.77538 1.3755 1.7727 1.4688 3.582 7e-3 -0.02584 0.02845-0.04052 0.0293-0.07031 8.59e-4 -0.04155-0.01408-0.05866-0.01367-0.09961-3.58e-4 -0.0011 3.7e-4 -0.0027 0-0.0039 0.02243-2.3469-0.4706-3.5221-1.4844-4.4082-1.0319-0.90196-2.3657-1.3148-3.6758-1.957-1.2156-0.59589-2.2201-1.8782-3.1641-3.125-0.05978-0.079463-0.15255-0.12817-0.25195-0.13086zm3.2617 6.7227c1.1535 3.8648 3.2617 9.9668 3.2617 9.9668 6e-3 0.01874-0.0048 0.03269-2e-3 0.05078a4.5 3.5 0 0 1 0.06055 0.27344 4.5 3.5 0 0 0 0.052778-0.51367 4.5 3.5 0 0 0-0.11328-0.75977c-0.0028-0.01809 8e-3 -0.03204 2e-3 -0.05078 0 0-1.7208-4.9982-2.9043-8.8203-0.12224-0.0492-0.22399-0.0905-0.35742-0.14648zm-1.127 6.2773a4.5 3.5 0 0 0-4.5 3.5 4.5 3.5 0 0 0 0.052734 0.49805 4.5 3.5 0 0 1 4.4473-2.998 4.5 3.5 0 0 1 1.8164 0.29883l-0.04102-0.05469c-0.02812-0.03257-0.04904-0.07046-0.0625-0.11133 0 0-0.27484-0.80217-0.33008-0.96094a4.5 3.5 0 0 0-1.3828-0.17187z" fill="#fff" opacity=".2"/>
  <path d="M 16,1.5 A 14,14 0 0 0 2,15.5 14,14 0 0 0 2.0214844,16.085938 14,14 0 0 1 16,2.5 14,14 0 0 1 29.978516,15.914062 14,14 0 0 0 30,15.5 14,14 0 0 0 16,1.5 Z" fill="#fff" opacity=".1"/>
 </g>
</svg>
